X: 94
T:Humor's of Tufts Street Reel
M:2/4
L:1/16
Z:abc by Bruce Osborne - bosborne@kos.net
K:D
dc|BEE2 BAFB|(3Bcd AF DFAc|BEE2 BABc|dBAF Edcd|!
BEE2 BAFA|(3Bcd AF DFAc|BABd cABc|dBAF E2:|!
|:FE|DFAc d2cA|BdAd BdBF|DFAc d2fe|dBAF EGFE|!
DFAc d2cA|(3BcdAd (3Bcd ef|gffe eddc|(3Bcd AF E2:|!
